X: 32466
T: Pitnacree Ferrymen, The
R: reel
M: 4/4
K: Dmajor
|:f|aA A/A/A fede|f2ef dB B/B/B|aA A/A/A fede|fedB A/A/A A:|
|:B|AGAB defd|e/e/e fd edBd|AGAB defd|efdB A/A/A A:|

